X:448
T:Kent County Jig
M:6/8
L:1/8
C:Angus Robichaud
N:To end this tune, go back and play A part ONCE, but take the 2nd ending.
K:D
f2 g !segno! |:"D"a2 a aba|"D7"fdf afd|"G"BdB ABd|"Em"gag gfe|"A7"[Ae][ce][ce] [ce][Be][Ae]|
[Ae][ce][ce] [c2e2] [Be]|[1"A7"ABA ABA|"D"F3 Ffg:|[2"A7"ABA ABc|"D"d3 "^Fine" dcB||
|:"D"ABA FAd|"D7"f3 fed|"G"BdB GBd|"Em"gag gfe|"A7"[Ae][ce][ce] [ce][Be][Ae]|
[Ae][ce][ce] [c2e2] [Be]|[1"A7"ABA ABA|"D"F3 F2 B:|[2"A7"ABA ABc|"D"d3 "^D.S. al Fine"z3||

%newpage

